logos/replit.svg

<?xml version="1.0" encoding="UTF-8"?>
<svg width="512px" height="122px" viewBox="0 0 512 122" version="1.1" xmlns="http://www.w3.org/2000/svg" preserveAspectRatio="xMidYMid">
    <title>replit</title>
    <g>
        <path d="M482.08647,15.9094991 C483.397803,15.9094991 484.416608,16.8556765 484.416608,18.092869 L484.416608,32.0666384 L509.669862,32.0666384 C510.981195,32.0666384 512,33.0128158 512,34.2500084 L512,41.4547761 C512,42.619341 510.981195,43.6381461 509.669862,43.7112781 L484.416608,43.7112781 L484.416608,64.962443 C484.416608,73.8416825 487.619288,77.4080047 496.64227,77.4080047 L507.99539,77.4080047 C509.306723,77.4080047 510.325528,78.3541821 510.325528,79.5913747 L510.325528,86.7961424 C510.325528,87.9607073 509.306723,88.9795124 507.99539,88.9795124 L494.463439,88.9795124 C477.864985,88.9795124 470.153337,81.4105974 470.153337,65.035575 L470.153337,43.6381461 L455.234399,43.6381461 C453.923066,43.6381461 452.90426,42.6919687 452.90426,41.4547761 L452.90426,34.2500084 C452.90426,33.0854435 453.923066,32.0666384 455.234399,32.0666384 L470.153337,32.0666384 L470.153337,18.092869 C470.153337,16.9283042 471.172142,15.9094991 472.483475,15.9094991 L482.08647,15.9094991 Z M435.509929,32.0666384 C436.819749,32.0666384 437.839058,33.0128158 437.839058,34.2500084 L437.839058,77.4080047 L455.668148,77.4080047 C456.979481,77.4080047 457.998286,78.3541821 457.998286,79.5913747 L457.998286,86.7961424 C457.998286,87.9607073 456.979481,88.9795124 455.668148,88.9795124 L406.179942,88.9795124 C404.870122,88.9795124 403.850812,88.033335 403.850812,86.7961424 L403.850812,79.5913747 C403.850812,78.4268098 404.870122,77.4080047 406.179942,77.4080047 L423.574274,77.4080047 L423.574274,43.6381461 L406.179942,43.6381461 C404.870122,43.6381461 403.850812,42.6919687 403.850812,41.4547761 L403.850812,34.2500084 C403.850812,33.0854435 404.870122,32.0666384 406.179942,32.0666384 L435.509929,32.0666384 Z M436.092463,10.0871792 C437.329656,10.0871792 438.348461,11.0333566 438.421089,12.2705492 L438.421089,21.5134315 C438.421089,22.6779964 437.402283,23.6968015 436.092463,23.6968015 L422.991739,23.6968015 C421.681919,23.6968015 420.663114,22.750624 420.663114,21.5134315 L420.663114,12.2705492 C420.663114,11.1059843 421.681919,10.0871792 422.991739,10.0871792 L436.092463,10.0871792 Z M392.861335,77.4080047 L378.01452,77.4080047 L378.01452,12.2705492 C378.01452,11.0333566 376.995715,10.0871792 375.68539,10.0871792 L346.573791,10.0871792 C345.263971,10.0871792 344.245166,11.1059843 344.245166,12.2705492 L344.245166,19.4758213 C344.245166,20.7130138 345.263971,21.6591913 346.573791,21.6591913 L363.749736,21.6591913 L363.749736,77.4080047 L344.463553,77.4080047 C343.153229,77.4080047 342.134423,78.4268098 342.134423,79.5913747 L342.134423,86.7961424 C342.134423,88.033335 343.153229,88.9795124 344.463553,88.9795124 L392.861335,88.9795124 C394.171659,88.9795124 395.190464,87.9607073 395.190464,86.7961424 L395.190464,79.5913747 C395.190464,78.3541821 394.171659,77.4080047 392.861335,77.4080047 Z M313.823242,30.9747013 C308.874472,30.9747013 305.30815,32.0666384 302.542749,34.6862789 L299.122187,37.961586 L295.99264,37.961586 L294.828075,33.7406058 C294.53706,32.7944284 293.66351,32.0666384 292.572077,32.0666384 L286.021967,32.0666384 C284.711643,32.0666384 283.692838,33.0854435 283.692838,34.2500084 L283.692838,108.775602 C283.692838,110.012794 284.711643,110.958972 286.021967,110.958972 L295.628492,110.958972 C296.938817,110.958972 297.957622,109.940166 297.957622,108.775602 L297.957622,92.6184623 L296.720429,83.9581146 L299.922605,83.2303246 L303.343167,86.5051273 C306.03594,88.9795124 309.311247,90.2167049 314.187389,90.2167049 C328.306414,90.2167049 336.821506,80.46442 336.821506,60.5957031 C336.748878,40.7269862 328.306414,30.9747013 313.823242,30.9747013 Z M309.092859,78.2810501 C301.887587,78.2810501 297.884994,74.5694725 297.884994,67.5099601 L297.884994,53.5361907 C297.884994,46.4766783 301.814959,42.7651007 309.092859,42.7651007 C317.898967,42.7651007 321.902064,48.2964055 321.902064,60.4504477 C321.828932,72.7497454 317.898967,78.2810501 309.092859,78.2810501 Z M243.009226,30.9747013 C224.669221,30.9747013 214.843804,40.7269862 214.843804,60.5230754 C214.843804,80.3917923 224.596089,90.1440772 242.645583,90.1440772 C256.618848,90.1440772 265.643848,84.3217574 268.045605,74.3510851 C268.409248,72.9681328 267.244683,71.6583126 265.789103,71.6583126 L257.055623,71.6583126 C256.109446,71.6583126 255.236401,72.2403428 254.872253,73.1138925 C253.344046,77.4080047 248.977306,79.4456149 243.082358,79.4456149 C233.912104,79.4456149 229.545364,74.4237128 228.962829,62.7064454 L268.773395,62.7064454 C270.956765,40.8001182 261.859138,30.9747013 243.009226,30.9747013 Z M229.399604,53.8272058 C230.782556,45.2394858 235.076668,41.2363887 242.936599,41.2363887 C251.306436,41.2363887 255.236401,45.6762607 255.454788,53.8272058 L229.399604,53.8272058 Z M186.459995,34.6136512 L183.184688,37.8889583 L179.909885,37.8889583 L178.89108,33.7406058 C178.672693,32.7212964 177.726515,32.0666384 176.634578,32.0666384 L155.674428,32.0666384 C154.364608,32.0666384 153.345299,33.0854435 153.345299,34.2500084 L153.345299,41.4547761 C153.345299,42.6919687 154.364608,43.6381461 155.674428,43.6381461 L168.046858,43.6381461 L168.046858,77.4080047 L153.636818,77.4080047 C152.326494,77.4080047 151.307689,78.4268098 151.307689,79.5913747 L151.307689,86.7961424 C151.307689,88.033335 152.326494,88.9795124 153.636818,88.9795124 L198.978185,88.9795124 C200.288005,88.9795124 201.30681,87.9607073 201.30681,86.7961424 L201.30681,79.5913747 C201.30681,78.3541821 200.288005,77.4080047 198.978185,77.4080047 L182.311643,77.4080047 L182.311643,53.5361907 C182.311643,46.8408255 186.241608,43.347131 193.956282,43.347131 L206.474472,43.347131 C207.784292,43.347131 208.803097,42.3283259 208.803097,41.163761 L208.803097,33.2306989 C208.803097,31.9935064 207.784292,31.047329 206.474472,31.047329 L199.050812,31.047329 C193.592135,30.9747013 189.298527,31.9935064 186.459995,34.6136512 Z" fill="#000000"></path>
        <path d="M0,7.56538443 C0,3.38727479 3.38727479,0 7.56538443,0 L42.8705117,0 C47.0486214,0 50.4358962,3.38727479 50.4358962,7.56538443 L50.4358962,40.3487169 L7.56538443,40.3487169 C3.38727479,40.3487169 0,36.9614422 0,32.7833325 L0,7.56538443 Z M50.4358962,40.3487169 L93.3064079,40.3487169 C97.4845176,40.3487169 100.871792,43.7359917 100.871792,47.9141014 L100.871792,73.1320495 C100.871792,77.3101591 97.4845176,80.6974339 93.3064079,80.6974339 L50.4358962,80.6974339 L50.4358962,40.3487169 Z M0,88.2628183 C0,84.0847087 3.38727479,80.6974339 7.56538443,80.6974339 L50.4358962,80.6974339 L50.4358962,113.480766 C50.4358962,117.658876 47.0486214,121.046151 42.8705117,121.046151 L7.56538443,121.046151 C3.38727479,121.046151 0,117.658876 0,113.480766 L0,88.2628183 Z" fill="#F26207"></path>
    </g>
</svg>

<svg preserveAspectRatio="xMidYMid" viewBox="0 0 512 122" xmlns="http://www.w3.org/2000/svg">
  <path d="M482.086 15.91c1.312 0 2.33.946 2.33 2.183v13.974h25.254c1.311 0 2.33.946 2.33 2.183v7.205c0 1.164-1.019 2.183-2.33 2.256h-25.253v21.251c0 8.88 3.202 12.446 12.225 12.446h11.353c1.312 0 2.33.946 2.33 2.183v7.205c0 1.165-1.018 2.184-2.33 2.184h-13.532c-16.598 0-24.31-7.57-24.31-23.944V43.638h-14.919c-1.31 0-2.33-.946-2.33-2.183V34.25c0-1.165 1.02-2.183 2.33-2.183h14.92V18.093c0-1.165 1.018-2.184 2.33-2.184h9.602ZM435.51 32.066c1.31 0 2.33.946 2.33 2.183v43.158h17.828c1.311 0 2.33.946 2.33 2.183v7.205c0 1.165-1.019 2.184-2.33 2.184H406.18c-1.31 0-2.33-.947-2.33-2.184V79.59c0-1.164 1.02-2.183 2.33-2.183h17.394v-33.77H406.18c-1.31 0-2.33-.946-2.33-2.183V34.25c0-1.165 1.02-2.183 2.33-2.183h29.33Zm.582-21.98a2.32 2.32 0 0 1 2.33 2.184v9.242c0 1.165-1.02 2.184-2.33 2.184h-13.1c-1.31 0-2.329-.946-2.329-2.184V12.27c0-1.165 1.019-2.184 2.329-2.184h13.1Zm-43.23 67.321h-14.847V12.271c0-1.238-1.02-2.184-2.33-2.184h-29.111c-1.31 0-2.329 1.019-2.329 2.184v7.205c0 1.237 1.019 2.183 2.329 2.183h17.176v55.749h-19.286c-1.31 0-2.33 1.019-2.33 2.183v7.205c0 1.237 1.02 2.184 2.33 2.184h48.397c1.31 0 2.33-1.02 2.33-2.184v-7.205c0-1.237-1.02-2.183-2.33-2.183Zm-79.039-46.433c-4.949 0-8.515 1.092-11.28 3.711l-3.42 3.276h-3.13l-1.165-4.221a2.358 2.358 0 0 0-2.256-1.674h-6.55c-1.31 0-2.33 1.018-2.33 2.183v74.526c0 1.237 1.02 2.183 2.33 2.183h9.606c1.31 0 2.33-1.019 2.33-2.183V92.618l-1.238-8.66 3.203-.728 3.42 3.275c2.693 2.475 5.968 3.712 10.844 3.712 14.12 0 22.635-9.753 22.635-29.621-.073-19.869-8.516-29.621-22.999-29.621Zm-4.73 47.306c-7.205 0-11.208-3.712-11.208-10.771V53.536c0-7.06 3.93-10.77 11.208-10.77 8.806 0 12.81 5.53 12.81 17.684-.074 12.3-4.004 17.831-12.81 17.831Zm-66.084-47.306c-18.34 0-28.165 9.752-28.165 29.548 0 19.869 9.752 29.621 27.802 29.621 13.973 0 22.998-5.822 25.4-15.793.363-1.383-.801-2.693-2.257-2.693h-8.733c-.947 0-1.82.582-2.184 1.456-1.528 4.294-5.895 6.332-11.79 6.332-9.17 0-13.537-5.022-14.12-16.74h39.811c2.184-21.906-6.914-31.731-25.764-31.731ZM229.4 53.827c1.384-8.588 5.678-12.59 13.538-12.59 8.37 0 12.3 4.44 12.518 12.59H229.4Zm-42.94-19.213-3.275 3.275h-3.275l-1.019-4.148c-.218-1.02-1.164-1.674-2.256-1.674h-20.96c-1.31 0-2.33 1.018-2.33 2.183v7.205c0 1.237 1.02 2.183 2.33 2.183h12.372v33.77h-14.41c-1.31 0-2.33 1.019-2.33 2.183v7.205c0 1.237 1.02 2.184 2.33 2.184h45.341c1.31 0 2.329-1.02 2.329-2.184v-7.205c0-1.237-1.019-2.183-2.329-2.183h-16.666V53.536c0-6.695 3.93-10.189 11.644-10.189h12.518c1.31 0 2.33-1.019 2.33-2.183V33.23c0-1.237-1.02-2.184-2.33-2.184h-7.423c-5.459-.072-9.752.947-12.591 3.567Z"/>
  <path fill="#F26207" d="M0 7.565A7.566 7.566 0 0 1 7.565 0h35.306a7.566 7.566 0 0 1 7.565 7.565V40.35H7.566A7.566 7.566 0 0 1 0 32.783V7.565ZM50.436 40.35h42.87a7.566 7.566 0 0 1 7.566 7.565v25.218a7.566 7.566 0 0 1-7.566 7.565h-42.87V40.35ZM0 88.263a7.566 7.566 0 0 1 7.565-7.566h42.87v32.784a7.566 7.566 0 0 1-7.564 7.565H7.565A7.566 7.566 0 0 1 0 113.481V88.263Z"/>
</svg>
